X:1
T:Presbyter, CMD
T:Presbyter, CMD
T:Walter Olivant Wilkinson, 1895
T:Public Domain Courtesy of the Cyber Hymnal™
C:Walter Olivant Wilkinson, 1895
Z:Public Domain
Z:Courtesy of the Cyber Hymnal™
%%score ( 1 2 ) ( 3 4 )
L:1/8
Q:1/4=110
M:4/4
K:Bb
V:1 treble 
V:2 treble 
V:3 bass 
V:4 bass 
V:1
 F2 | [FB]2 [FB]2 [FA]2 [FA]2 | [EG]2 [EG]2 [DF]2 [EF]2 | [Dd]2 [Fd]2 [Fc]2 c2 | [Fc]6 [Fd]2 | %5
 [Ee]2 [Fd]2 c2 [FB]2 | [^Fd]2 [Dc]2 [DB]2 [=FA]2 | [FG]3 [FG] [FA]2 [=EB]2 | [Ec]6 [EF]2 | %9
 [DB]2 [FB]2 [FA]2 [FA]2 | [EG]2 [EG]2 [DF]2 [DF]2 | [DG]3 [DG] [D_A]2 [DG]2 | c6 [=Ec]2 | %13
 [Ff]3 [Fe] [Fd]2 [DB]2 | [Dd]3 [Dc] B2 [=EB]2 | [FB]2 [DF]2 [Ec]3 [DB] | [DB]6 |] %17
V:2
 F2 | x8 | x8 | x8 | x8 | x4 (G_G) x2 | x8 | x8 | x8 | x8 | x8 | x8 | (C2 D2 =E2) x2 | x8 | %14
 x4 (D=E) x2 | x8 | x6 |] %17
V:3
 F,2 | [B,,D]2 [F,,D]2 [D,D]2 [F,,D]2 | [G,,B,]2 [A,,C]2 [B,,D]2 [C,A,]2 | %3
 [B,,B,]2 [B,,B,]2 [C,A,]2 [C,G,]2 | [F,A,]6 B,2 | [G,B,]2 [F,A,]2 (G,A,) [D,B,]2 | %6
 [D,A,]2 ([=E,G,][^F,A,]) [G,B,]2 [A,C]2 | [B,D]3 [B,D] [A,C]2 [G,B,]2 | [F,A,]6 [F,A,]2 | %9
 [B,,B,]2 [F,,D]2 [D,D]2 [F,,D]2 | [G,,B,]2 [A,,C]2 [B,,D]2 [_A,,C]2 | %11
 [G,,=B,]3 [G,B,] [F,B,]2 [F,B,]2 | ([E,G,]2 [D,F,]2 [C,E,]2) (G,C) | [A,,C]3 [A,C] [B,D]2 B,2 | %14
 [^F,A,]3 [F,A,] [G,B,]2 [_G,_D]2 | [F,D]2 [F,B,]2 [F,,A,]3 [B,,F,] | [B,,F,]6 |] %17
V:4
 F,2 | x8 | x8 | x8 | x8 | x4 E,2 x2 | x8 | x8 | x8 | x8 | x8 | x8 | x6 B,,2 | x8 | x8 | x8 | x6 |] %17

